X:1
T:Delia
M:4/4
L:1/4
K:D
 A/2 A3/2 A B| d/2 d/2- d2 B| A/2 A3/2 A B| F4| B2 B A| G3 F| E/2 E3/2 F E|\
 D2 D C| B,2 E/2 E3/2| E2 F E| D2 F/2 E3/2| D2 D C| B,2 E/2 E3/2| E2 F E|\
 D2 F/2 E3/2| D4|

